X:1
T:Senor Don Gato
M:2/4
L:1/8
K:F
 z2 DF| A3 B| c3 B| AG A2-| A2 DF| A3 B| c3 B| AG A2-| A2| AB| AB AB|\
 BA G_G| G2 GA| GA GA| AG FE| F2 EF| A3 E| G3 F| E D3-| D2 z2|

